build/img/four_benefits/slider/4/num.svg

<svg width="80" height="80" viewBox="0 0 80 80" fill="none" xmlns="http://www.w3.org/2000/svg">
<g clip-path="url(#clip0_2_542)">
<path fill-rule="evenodd" clip-rule="evenodd" d="M32.8133 0.32351C50.1855 -1.01986 70.4029 1.25978 76.8945 17.9704C84.5083 37.5696 77.7115 60.7266 60.9975 72.8747C44.9727 84.5218 22.929 81.1793 8.04953 68.0083C-4.02564 57.3196 -0.392051 38.8825 5.23157 23.512C9.86627 10.8443 19.7478 1.33384 32.8133 0.32351Z" fill="#EF7F1A"/>
<path d="M32.2 47.216C30.232 47.216 28.728 46.472 27.688 44.984C26.664 43.48 26.152 41.328 26.152 38.528C26.152 36.624 26.384 35.032 26.848 33.752C27.312 32.472 27.992 31.504 28.888 30.848C29.784 30.192 30.888 29.864 32.2 29.864C34.184 29.864 35.688 30.6 36.712 32.072C37.736 33.528 38.248 35.672 38.248 38.504C38.248 40.376 38.016 41.96 37.552 43.256C37.088 44.552 36.408 45.536 35.512 46.208C34.616 46.88 33.512 47.216 32.2 47.216ZM32.2 45.152C33.432 45.152 34.336 44.616 34.912 43.544C35.504 42.456 35.8 40.776 35.8 38.504C35.8 36.216 35.504 34.552 34.912 33.512C34.336 32.456 33.432 31.928 32.2 31.928C30.984 31.928 30.08 32.456 29.488 33.512C28.896 34.552 28.6 36.216 28.6 38.504C28.6 40.776 28.896 42.456 29.488 43.544C30.08 44.616 30.984 45.152 32.2 45.152ZM49.3746 47.168C48.9906 47.168 48.6866 47.064 48.4626 46.856C48.2386 46.632 48.1266 46.328 48.1266 45.944L48.1266 43.568L41.6946 43.568C41.2946 43.568 40.9746 43.48 40.7346 43.304C40.4946 43.128 40.3746 42.856 40.3746 42.488C40.3746 42.28 40.4226 42.056 40.5186 41.816C40.6306 41.576 40.8226 41.264 41.0946 40.88L48.0786 30.728C48.2546 30.456 48.4546 30.256 48.6786 30.128C48.9026 29.984 49.1586 29.912 49.4466 29.912C49.7826 29.912 50.0546 30.016 50.2626 30.224C50.4866 30.416 50.5986 30.72 50.5986 31.136L50.5986 41.48L52.1106 41.48C52.4946 41.48 52.7746 41.568 52.9506 41.744C53.1426 41.92 53.2386 42.176 53.2386 42.512C53.2386 42.864 53.1426 43.128 52.9506 43.304C52.7746 43.48 52.4946 43.568 52.1106 43.568L50.5986 43.568L50.5986 45.944C50.5986 46.328 50.4866 46.632 50.2626 46.856C50.0546 47.064 49.7586 47.168 49.3746 47.168ZM48.1266 41.48L48.1266 33.008L48.7746 33.008L42.5106 42.152L42.5106 41.48L48.1266 41.48Z" fill="white"/>
</g>
<defs>
<clipPath id="clip0_2_542">
<rect width="80" height="80" fill="white"/>
</clipPath>
</defs>
</svg>

<svg width="80" height="80" fill="none" xmlns="http://www.w3.org/2000/svg"><g clip-path="url(#a)"><path fill-rule="evenodd" clip-rule="evenodd" d="M32.813.324c17.372-1.344 37.59.936 44.081 17.646 7.614 19.6.817 42.757-15.897 54.905C44.974 84.522 22.93 81.179 8.05 68.008-4.026 57.32-.392 38.883 5.232 23.512 9.866 10.844 19.748 1.334 32.813.324Z" fill="#EF7F1A"/><path d="M32.2 47.216c-1.968 0-3.472-.744-4.512-2.232-1.024-1.504-1.536-3.656-1.536-6.456 0-1.904.232-3.496.696-4.776.464-1.28 1.144-2.248 2.04-2.904.896-.656 2-.984 3.312-.984 1.984 0 3.488.736 4.512 2.208 1.024 1.456 1.536 3.6 1.536 6.432 0 1.872-.232 3.456-.696 4.752-.464 1.296-1.144 2.28-2.04 2.952-.896.672-2 1.008-3.312 1.008Zm0-2.064c1.232 0 2.136-.536 2.712-1.608.592-1.088.888-2.768.888-5.04 0-2.288-.296-3.952-.888-4.992-.576-1.056-1.48-1.584-2.712-1.584-1.216 0-2.12.528-2.712 1.584-.592 1.04-.888 2.704-.888 4.992 0 2.272.296 3.952.888 5.04.592 1.072 1.496 1.608 2.712 1.608Zm17.175 2.016c-.384 0-.688-.104-.912-.312-.224-.224-.336-.528-.336-.912v-2.376h-6.432c-.4 0-.72-.088-.96-.264-.24-.176-.36-.448-.36-.816 0-.208.048-.432.144-.672.112-.24.304-.552.576-.936l6.984-10.152c.176-.272.376-.472.6-.6a1.39 1.39 0 0 1 .768-.216c.336 0 .608.104.816.312.224.192.336.496.336.912V41.48h1.512c.384 0 .664.088.84.264.192.176.288.432.288.768 0 .352-.096.616-.288.792-.176.176-.456.264-.84.264h-1.512v2.376c0 .384-.112.688-.336.912-.208.208-.504.312-.888.312Zm-1.248-5.688v-8.472h.648l-6.264 9.144v-.672h5.616Z" fill="#fff"/></g><defs><clipPath id="a"><path fill="#fff" d="M0 0h80v80H0z"/></clipPath></defs></svg>
